X: 18416
T: Hunter's Purse, The
R: reel
M: 4/4
K: Adorian
Bd|eA~A2 AGEF|G2AF GEDB|cBcd e2ed|^cdeg gedg|
eA~A2 AGEF|G2AF GEDB|cBcd eged|(3cBA BG A2:|
ea~a2 agef|gbaf gedB|c3d e2ed|^cdeg gedg|
ea~a2 agef|gbaf gedB|cBcd eged|(3cBA BG A2:|

